src/assets/icons/forward.svg

<svg height="40" viewBox="0 0 40 40" width="40" xmlns="http://www.w3.org/2000/svg"><path d="m20.6213203 12.4142136-7.7928932 7.7928932 7.5466803 7.5466802-1.4142136 1.4142136-8.9608938-8.9608938 9.2071068-9.2071068zm10 0-7.7928932 7.7928932 7.5466803 7.5466802-1.4142136 1.4142136-8.9608938-8.9608938 9.2071068-9.2071068z" transform="matrix(-1 0 0 1 40.62132 0)"/></svg>

<svg width="21px" height="19px" viewBox="0 0 21 19" version="1.1" xmlns="http://www.w3.org/2000/svg" xmlns:xlink="http://www.w3.org/1999/xlink">
    <defs>
        <path d="M20.6213203,12.4142136 L12.8284271,20.2071068 L20.3751074,27.753787 L18.9608938,29.1680006 L10,20.2071068 L19.2071068,11 L20.6213203,12.4142136 Z M30.6213203,12.4142136 L22.8284271,20.2071068 L30.3751074,27.753787 L28.9608938,29.1680006 L20,20.2071068 L29.2071068,11 L30.6213203,12.4142136 Z" id="path-1"></path>
    </defs>
    <g id="Symbols" stroke="none" stroke-width="1" fill="none" fill-rule="evenodd">
        <g id="Icon/Arrow/Last" transform="translate(-10.000000, -11.000000)">
            <mask id="mask-2" fill="white">
                <use xlink:href="#path-1"></use>
            </mask>
            <use id="Combined-Shape" fill="#979797" fill-rule="nonzero" transform="translate(20.310660, 20.084000) scale(-1, 1) translate(-20.310660, -20.084000) " xlink:href="#path-1"></use>
        </g>
    </g>
</svg>
